PortableApps/LibreOfficePortable/App/libreoffice/help/media/icon-themes/cmd/lc_insertlinebreak.svg

<svg viewBox="0 0 24 24" xmlns="http://www.w3.org/2000/svg"><path d="m5 3v18h15v-18z" fill="#fff"/><path d="m5 2c-.554 0-1 .446-1 1v18c0 .554.446 1 1 1h15c.554 0 1-.446 1-1v-18c0-.554-.446-1-1-1zm0 1h15v18h-15zm1.5 2c-.277 0-.5.223-.5.5s.223.5.5.5h11c.277 0 .5-.223.5-.5s-.223-.5-.5-.5zm0 3c-.277 0-.5.223-.5.5s.223.5.5.5h4c.277 0 .5-.223.5-.5s-.223-.5-.5-.5zm0 3c-.277 0-.5.223-.5.5s.223.5.5.5h4c.277 0 .5-.223.5-.5s-.223-.5-.5-.5zm0 4c-.277 0-.5.223-.5.5s.223.5.5.5h11c.277 0 .5-.223.5-.5s-.223-.5-.5-.5zm0 3c-.277 0-.5.223-.5.5s.223.5.5.5h11c.277 0 .5-.223.5-.5s-.223-.5-.5-.5z" fill="#808080"/><path d="m12.5 8c-.276142 0-.5.223858-.5.5s.223858.5.5.5h1c1.380712 0 2.5 1.119288 2.5 2.5h.005859v.423828 1.359375l-2.152343-2.144531a.50005.50005 0 0 0 -.359375-.152344.50005.50005 0 0 0 -.347657.859375l3.00586 2.994141a.50005.50005 0 0 0 .707031-.001953l2.994141-2.992188a.50005.50005 0 1 0 -.707032-.707031l-2.140625 2.138672v-1.353516-.5c-.0059-2.1546629-1.883369-3.373798-3.505859-3.423828z" fill="#4d82b8"/></svg>

<svg viewBox="0 0 24 24" xmlns="http://www.w3.org/2000/svg">
  <path
     style="fill:#ffffff"
     d="M 5 3 L 5 21 L 20 21 L 20 3 L 5 3 z "
     />
  <path
     style="fill:#808080"
     d="M 5 2 C 4.446 2 4 2.446 4 3 L 4 21 C 4 21.554 4.446 22 5 22 L 20 22 C 20.554 22 21 21.554 21 21 L 21 3 C 21 2.446 20.554 2 20 2 L 5 2 z M 5 3 L 20 3 L 20 21 L 5 21 L 5 3 z M 6.5 5 C 6.223 5 6 5.223 6 5.5 C 6 5.777 6.223 6 6.5 6 L 17.5 6 C 17.777 6 18 5.777 18 5.5 C 18 5.223 17.777 5 17.5 5 L 6.5 5 z M 6.5 8 C 6.223 8 6 8.223 6 8.5 C 6 8.777 6.223 9 6.5 9 L 10.5 9 C 10.777 9 11 8.777 11 8.5 C 11 8.223 10.777 8 10.5 8 L 6.5 8 z M 6.5 11 C 6.223 11 6 11.223 6 11.5 C 6 11.777 6.223 12 6.5 12 L 10.5 12 C 10.777 12 11 11.777 11 11.5 C 11 11.223 10.777 11 10.5 11 L 6.5 11 z M 6.5 15 C 6.223 15 6 15.223 6 15.5 C 6 15.777 6.223 16 6.5 16 L 17.5 16 C 17.777 16 18 15.777 18 15.5 C 18 15.223 17.777 15 17.5 15 L 6.5 15 z M 6.5 18 C 6.223 18 6 18.223 6 18.5 C 6 18.777 6.223 19 6.5 19 L 17.5 19 C 17.777 19 18 18.777 18 18.5 C 18 18.223 17.777 18 17.5 18 L 6.5 18 z "
     />
  <path
     style="fill:#4d82b8"
     d="M 12.5 8 C 12.223858 8 12 8.223858 12 8.5 C 12 8.776142 12.223858 9 12.5 9 L 13.5 9 C 14.880712 9 16 10.119288 16 11.5 L 16.005859 11.5 L 16.005859 11.923828 L 16.005859 13.283203 L 13.853516 11.138672 A 0.50005 0.50005 0 0 0 13.494141 10.986328 A 0.50005 0.50005 0 0 0 13.146484 11.845703 L 16.152344 14.839844 A 0.50005 0.50005 0 0 0 16.859375 14.837891 L 19.853516 11.845703 A 0.50005 0.50005 0 1 0 19.146484 11.138672 L 17.005859 13.277344 L 17.005859 11.923828 L 17.005859 11.423828 C 16.999959 9.2691651 15.12249 8.05003 13.5 8 L 12.5 8 z "
     />
</svg>
